X: 5
T: Mrs. Crowley's
R: polka
M: 2/4
L: 1/8
K: Gmaj
|:D>G EG|DG EG/E/|DE {A/B/}AG/A/|BA A>G|
DG E/F/G/E/|DG EG|DG AG/A/|1 BG G>E:|2 BG G2||
|:d/B/c/d/ gB|dB gB|dB/d/ gB|cA A2|
dB/d/ gB|dB g2|GB AG/A/|1 BG G2:|2 BG G>E||

